ligands/monodentate/pyridyl.svg

<svg height="256" viewBox="0 0 256 256" width="256" xmlns="http://www.w3.org/2000/svg"><path d="m0 0h256v256h-256z" fill="#fff"/><ellipse cx="36.6" cy="195.2" fill="#ff7f7f" fill-rule="evenodd" rx="23.8" ry="23.8" stroke="#ff7f7f"/><g fill="none" stroke="#000" stroke-width="2"><path d="m105.3 140.9.1-64.7"/><path d="m105.4 76.2 68.7-39.6"/><path d="m117.3 83.1 56.8-32.7"/><path d="m120 164 54 31.3"/><path d="m125.9 153.7 48.1 27.8"/><path d="m174 195.3 68.7-39.6"/><path d="m242.7 155.7.1-79.4"/><path d="m230.8 148.8.1-65.6"/><path d="m242.8 76.3-68.7-39.7"/><path d="m90.7 164-39.5 22.8"/><path d="m105.4 79.5v-3.3l3.4-2" stroke-miterlimit="10"/><path d="m170.7 38.6 3.4-2 3.5 2" stroke-miterlimit="10"/><path d="m171.3 193.7 2.7 1.6 3.4-2" stroke-miterlimit="10"/><path d="m239.3 157.7 3.4-2v-4" stroke-miterlimit="10"/><path d="m242.8 80.3v-4l-3.4-1.9" stroke-miterlimit="10"/></g><text x="24.6" y="215.2"/><text font-family="sans-serif" font-size="40" x="93.3" y="175.6">N</text></svg>

<?xml version='1.0' encoding='iso-8859-1'?>
<svg version='1.1' baseProfile='full'
              xmlns='http://www.w3.org/2000/svg'
                      xmlns:rdkit='http://www.rdkit.org/xml'
                      xmlns:xlink='http://www.w3.org/1999/xlink'
                  xml:space='preserve'
width='256px' height='256px' viewBox='0 0 256 256'>
<!-- END OF HEADER -->
<rect style='opacity:1.0;fill:#FFFFFF;stroke:none' width='256.0' height='256.0' x='0.0' y='0.0'> </rect>
<ellipse cx='36.6' cy='195.2' rx='23.8' ry='23.8' class='atom-0'  style='fill:#FF7F7F;fill-rule:evenodd;stroke:#FF7F7F;stroke-width:1.0px;stroke-linecap:butt;stroke-linejoin:miter;stroke-opacity:1' />
<path class='bond-0 atom-1 atom-2' d='M 105.3,140.9 L 105.4,76.2' style='fill:none;fill-rule:evenodd;stroke:#000000;stroke-width:2.0px;stroke-linecap:butt;stroke-linejoin:miter;stroke-opacity:1' />
<path class='bond-1 atom-2 atom-3' d='M 105.4,76.2 L 174.1,36.6' style='fill:none;fill-rule:evenodd;stroke:#000000;stroke-width:2.0px;stroke-linecap:butt;stroke-linejoin:miter;stroke-opacity:1' />
<path class='bond-1 atom-2 atom-3' d='M 117.3,83.1 L 174.1,50.4' style='fill:none;fill-rule:evenodd;stroke:#000000;stroke-width:2.0px;stroke-linecap:butt;stroke-linejoin:miter;stroke-opacity:1' />
<path class='bond-2 atom-1 atom-4' d='M 120.0,164.0 L 174.0,195.3' style='fill:none;fill-rule:evenodd;stroke:#000000;stroke-width:2.0px;stroke-linecap:butt;stroke-linejoin:miter;stroke-opacity:1' />
<path class='bond-2 atom-1 atom-4' d='M 125.9,153.7 L 174.0,181.5' style='fill:none;fill-rule:evenodd;stroke:#000000;stroke-width:2.0px;stroke-linecap:butt;stroke-linejoin:miter;stroke-opacity:1' />
<path class='bond-3 atom-4 atom-5' d='M 174.0,195.3 L 242.7,155.7' style='fill:none;fill-rule:evenodd;stroke:#000000;stroke-width:2.0px;stroke-linecap:butt;stroke-linejoin:miter;stroke-opacity:1' />
<path class='bond-4 atom-5 atom-6' d='M 242.7,155.7 L 242.8,76.3' style='fill:none;fill-rule:evenodd;stroke:#000000;stroke-width:2.0px;stroke-linecap:butt;stroke-linejoin:miter;stroke-opacity:1' />
<path class='bond-4 atom-5 atom-6' d='M 230.8,148.8 L 230.9,83.2' style='fill:none;fill-rule:evenodd;stroke:#000000;stroke-width:2.0px;stroke-linecap:butt;stroke-linejoin:miter;stroke-opacity:1' />
<path class='bond-5 atom-6 atom-3' d='M 242.8,76.3 L 174.1,36.6' style='fill:none;fill-rule:evenodd;stroke:#000000;stroke-width:2.0px;stroke-linecap:butt;stroke-linejoin:miter;stroke-opacity:1' />
<path class='bond-6 atom-1 atom-0' d='M 90.7,164.0 L 51.2,186.8' style='fill:none;fill-rule:evenodd;stroke:#000000;stroke-width:2.0px;stroke-linecap:butt;stroke-linejoin:miter;stroke-opacity:1' />
<path d='M 105.4,79.5 L 105.4,76.2 L 108.8,74.2' style='fill:none;stroke:#000000;stroke-width:2.0px;stroke-linecap:butt;stroke-linejoin:miter;stroke-miterlimit:10;stroke-opacity:1;' />
<path d='M 170.7,38.6 L 174.1,36.6 L 177.6,38.6' style='fill:none;stroke:#000000;stroke-width:2.0px;stroke-linecap:butt;stroke-linejoin:miter;stroke-miterlimit:10;stroke-opacity:1;' />
<path d='M 171.3,193.7 L 174.0,195.3 L 177.4,193.3' style='fill:none;stroke:#000000;stroke-width:2.0px;stroke-linecap:butt;stroke-linejoin:miter;stroke-miterlimit:10;stroke-opacity:1;' />
<path d='M 239.3,157.7 L 242.7,155.7 L 242.7,151.7' style='fill:none;stroke:#000000;stroke-width:2.0px;stroke-linecap:butt;stroke-linejoin:miter;stroke-miterlimit:10;stroke-opacity:1;' />
<path d='M 242.8,80.3 L 242.8,76.3 L 239.4,74.4' style='fill:none;stroke:#000000;stroke-width:2.0px;stroke-linecap:butt;stroke-linejoin:miter;stroke-miterlimit:10;stroke-opacity:1;' />
<text x='24.6' y='215.2' class='atom-0' style='font-size:40px;font-style:normal;font-weight:normal;fill-opacity:1;stroke:none;font-family:sans-serif;text-anchor:start;fill:#000000' ></text>
<text x='93.3' y='175.6' class='atom-1' style='font-size:40px;font-style:normal;font-weight:normal;fill-opacity:1;stroke:none;font-family:sans-serif;text-anchor:start;fill:#000000' >N</text>
</svg>
